packages/sources/icons/src/vitamix/secure-payment-fill.svg

<svg width="16" height="16" viewBox="0 0 16 16" xmlns="http://www.w3.org/2000/svg"><path d="M7.33333 1.33334L12.1987 2.85334C12.4772 2.94029 12.6668 3.19824 12.6667 3.49001V4.66668H14C14.3682 4.66668 14.6667 4.96515 14.6667 5.33334V6.66668H6V5.33334C6 4.96515 6.29848 4.66668 6.66667 4.66668H11.3333V3.98001L7.33333 2.72934L3.33333 3.98001V8.91601C3.33314 9.74321 3.71684 10.5237 4.372 11.0287L4.498 11.1193L7.33333 13.0533L9.85467 11.3333H6.66667C6.29848 11.3333 6 11.0349 6 10.6667V8.00001H14.6667V10.6667C14.6667 11.0349 14.3682 11.3333 14 11.3333L11.8533 11.334C11.5953 11.674 11.282 11.974 10.92 12.2207L7.33333 14.6667L3.74667 12.2213C2.65372 11.4762 1.99986 10.2388 2 8.91601V3.49001C2.00016 3.19849 2.18972 2.94088 2.468 2.85401L7.33333 1.33334Z"/></svg>

<svg width="16" height="16" xmlns="http://www.w3.org/2000/svg"><path d="m7.333 1.333 4.866 1.52a.667.667 0 0 1 .468.637v1.177H14c.368 0 .667.298.667.666v1.334H6V5.333c0-.368.298-.666.667-.666h4.666V3.98l-4-1.25-4 1.25v4.936c0 .827.384 1.608 1.039 2.113l.126.09 2.835 1.934 2.522-1.72H6.667A.667.667 0 0 1 6 10.667V8h8.667v2.667a.667.667 0 0 1-.667.666l-2.147.001c-.258.34-.571.64-.933.887l-3.587 2.446-3.586-2.446A4 4 0 0 1 2 8.916V3.49c0-.292.19-.55.468-.636l4.865-1.52Z"/></svg>
